img/watched.svg

<?xml version="1.0" encoding="UTF-8"?>
<!-- Generated by Pixelmator Pro 3.1.1 -->
<svg width="500" height="500" viewBox="0 0 500 500" xmlns="http://www.w3.org/2000/svg" xmlns:xlink="http://www.w3.org/1999/xlink">
    <path id="path1" fill="currentcolor" fill-rule="evenodd" stroke="none" d="M 250 500 C 386.764709 500 500 386.519592 500 250 C 500 113.235291 386.519623 0 249.754898 0 C 113.235291 0 0 113.235291 0 250 C 0 386.519592 113.480392 500 250 500 Z M 250 458.333344 C 134.313721 458.333344 41.911766 365.686279 41.911766 250 C 41.911766 134.313721 134.068634 41.666656 249.754898 41.666656 C 365.441162 41.666656 458.333344 134.313721 458.333344 250 C 458.333344 365.686279 365.686279 458.333344 250 458.333344 Z M 223.039215 366.42157 C 231.127457 366.42157 237.990189 362.5 242.892151 354.901978 L 354.901947 178.676483 C 357.598053 173.774506 360.784302 168.382355 360.784302 162.990204 C 360.784302 151.960785 350.980377 144.852936 340.686279 144.852936 C 334.558838 144.852936 328.431366 148.774506 323.774506 155.882355 L 222.058823 319.117645 L 173.774506 256.617645 C 167.892151 248.774506 162.5 246.813721 155.637253 246.813721 C 145.098038 246.813721 136.764709 255.392151 136.764709 266.176453 C 136.764709 271.568634 138.970581 276.715698 142.401962 281.372559 L 202.205887 354.901978 C 208.333328 362.990173 214.950974 366.42157 223.039215 366.42157 Z"/>
</svg>

<svg width="500" height="500" viewBox="0 0 500 500" xmlns="http://www.w3.org/2000/svg" xmlns:xlink="http://www.w3.org/1999/xlink">
	<path id="path1" fill="currentcolor" fill-rule="evenodd" stroke="none" d="M250 500c136.76 0 250-113.48 250-250C500 113.24 386.52 0 249.75 0 113.24 0 0 113.24 0 250c0 136.52 113.48 250 250 250Zm0-41.67C134.31 458.33 41.91 365.7 41.91 250c0-115.69 92.16-208.33 207.84-208.33 115.7 0 208.58 92.64 208.58 208.33A207.54 207.54 0 0 1 250 458.33Zm-26.96-91.9c8.09 0 14.95-3.93 19.85-11.53L354.9 178.68c2.7-4.9 5.88-10.3 5.88-15.69 0-11.03-9.8-18.14-20.1-18.14-6.12 0-12.25 3.92-16.9 11.03L222.05 319.12l-48.29-62.5c-5.88-7.85-11.27-9.8-18.13-9.8-10.54 0-18.88 8.57-18.88 19.36 0 5.39 2.21 10.54 5.64 15.2l59.8 73.52c6.13 8.09 12.75 11.52 20.84 11.52Z"/>
</svg>
